X:1
T:Arie Antiche
T:O leggiardi occhi belli
T:O leggiadri occhi belli
T:Anonimo del XVI secolo Alessandro Parisotti (1853-1913)
T:Arietta (Arie Antiche.)
T:High voices La condotta e l'indole della melodia la farebbero attribuire ad Andrea Falconieri.
T:Creative Commons copyright waiver (CC0 1.0 Universal) 
T:Creative Commons copyright waiver (CC0 1.0 Universal) 
T:Creative Commons copyright waiver (CC0 1.0 Universal) 
T:Creative Commons copyright waiver (CC0 1.0 Universal) 
T:Creative Commons copyright waiver (CC0 1.0 Universal) 
C:Anonimo
Z:Creative Commons copyright waiver (CC0 1.0 Universal)
Z:
%%score 1 { ( 2 5 6 ) | ( 3 4 ) }
L:1/8
Q:1/4=84
M:3/4
K:Ab
V:1 treble nm="CANTO"
V:2 treble nm="Piano"
V:5 treble 
V:6 treble 
V:3 bass 
V:4 bass 
V:1
 z2!f!!>(! c2 c2 | c2 B2 B2 |[Q:1/4=120] c2[Q:1/4=130] A4 | c2 B2[Q:1/4=120] A2 | G6!>)! | %5
w: O leg-|gia- dri oc- chi|bel- li,|oc- chi miei|ca-|
!p![Q:1/4=130] F4 z2 | z2!f!!>(! c2 c2 | c2 B2 B2 |[Q:1/4=120] c2[Q:1/4=130] A4 | c2 B2 A2!>)! | %10
w: ri,|O leg-|gia- dri oc- chi|bel- li,|oc- chi miei|
!p![Q:1/4=120] G6 |[Q:1/4=110] F4 z2 | z2[Q:1/4=130]!<(! c2 =d2 | e2 =d2 d2!<)! | %14
w: ca-|ri,|vi- vi|rag- gi del|
[Q:1/4=120]!>(! c3 B _d[Q:1/4=110] c!>)! | B6[Q:1/4=100]"^rit." | A4[Q:1/4=130]"^a tempo" z2 | %17
w: ciel se- re- ni e|chia-|ri,|
 z2!<(! c2 =d2 | e2 =d2 d2 | c3!<)![Q:1/4=120]!>(! B _d c |[Q:1/4=110] B6[Q:1/4=100] | A4!>)! z2 | %22
w: vi- vi|rag- gi del|ciel se- re- ni e|chia-|ri,|
 z2[Q:1/4=134] (c2 =d2 | e2 B2 c2 | !>!_d6 |[Q:1/4=138] c4) z2 | z2 (B2 c2 | d2 A2 B2 | c6 | %29
w: poi- chè|tan- to bra-|ma-|te|di ve-|der- mi lan-|gui-|
 B4) z2 |[Q:1/4=128] z2 (A2 B2 |[Q:1/4=120] c2 B2[Q:1/4=110] A2 | B6 |[Q:1/4=100] A4) z2 | %34
w: re,|di ve-|der- mi mo-|ri-|re,|
!<(! z2[Q:1/4=138] (c2 _d2 |!>(! !>!e2!<)! d2 c2 |[Q:1/4=130] d2 c2 B2!>)! |[Q:1/4=120] c2 B2 A2 | %38
w: oc- chi|bel- li che a-|do- ro, mi-|ra- te ch'io|
 B2"^dim." A2)[Q:1/4=110] (G2 | A2[Q:1/4=104] B3 A | %40
w: mo- ro, mi-|ra- te ch'io|
[Q:1/4=100]"^rit.   .   .   .   .   .   .   .   ." G6 | F4) !fermata!z2 || %42
w: mo-|ro.|
[Q:1/4=138] z2!f!!>(! c2 c2 | c2 B2 B2 |[Q:1/4=130] c2 A4 |[Q:1/4=120] c2 B2!>)![Q:1/4=110] A2 | %46
w: O se-|re- ne mie|lu- ci,|o lu- ci a-|
!>(! G6!>)! | F4 z2 |[Q:1/4=138] z2!f!!>(! c2 c2 | c2 B2 B2 |[Q:1/4=130] c2 A4 | %51
w: ma-|te,|O se-|re- ne mie|lu- ci,|
 c2[Q:1/4=120] B2 A2!>)! | G6 | F4 z2 |[Q:1/4=138] z2!<(! c2 =d2 | e2 =d2 d2!<)! | %56
w: o lu- ci a|ma-|te|tan- to|cru- de al mio a-|
!>(! c3[Q:1/4=120] B _d c |[Q:1/4=110] B6!>)! |[Q:1/4=100] A4 z2 |[Q:1/4=130]!<(! z2 c2 =d2 | %60
w: mor quan- to spie-|ta-|te,|tan- to|
 e2[Q:1/4=120] =d2 d2!<)! |!>(! c3[Q:1/4=110] B _d c | B6 |[Q:1/4=100] A4!>)! z2 | %64
w: cru- da al mio a-|mor quan- to spie-|ta-|te,|
 z2[Q:1/4=138] (c2 =d2 | e2 B2 c2 |[Q:1/4=130] !>!_d6 |[Q:1/4=120] c4) z2 | z2[Q:1/4=130] (B2 c2 | %69
w: poi- chè|tan- to go-|de-|te|del- la|
 d2 A2[Q:1/4=120] B2 | c6 |[Q:1/4=130] B4) z2 | z2 (A2 B2 | c2[Q:1/4=120] B2 A2 |[Q:1/4=110] B6 | %75
w: fiam- ma ch'io|sen-|to|del mio|gra- ve tor-|men-|
 A4) z2 | z2[Q:1/4=134]!<(! (c2 _d2!<)! |!>(! !>!e2 d2 c2 | d2 c2[Q:1/4=120] B2 | %79
w: to,|deh mi-|ra- te- mi un|po- co e gio-|
 c2 B2[Q:1/4=110] A2 | B2!>)![Q:1/4=100]"^dim." A2) (G2 |!>(! A2 B3 A |[Q:1/4=100]"^rit." G6 | %83
w: i- te al mio|fo- co, gio-|i- te al mio|fo-|
 F4)!>)! !fermata!z2 |] %84
w: co|
V:2
!f! z2 [EAc]2 [EAc]2 | [EGc]2 [EGB]2 [EGB]2 | [EAc]2 [CEA]4 | [DFc]2 [DFB]2 [DFA]2 | %4
 [DFG]4 [B,=EG]2 | (F2 (A2 c2)) |!f! z2 [EAc]2 [EAc]2 | [EGc]2 [EGB]2 [EGB]2 | [EAc]2 !>![CEA]4 | %9
 [DFc]2 [DFB]2 [DFA]2 | [DFG]4 [B,=EG]2 | F2 (A2 c2) | z2 [FAc]2 [FB=d]2 | [GBe]2 [FB=d]2 [EBd]2 | %14
 (c2- cB _dc) | B6 | ([CEA]2 A2 c2) | z2 ([Ac]2 [FB=d]2 | [GBe]2 [FB=d]2 [EBd]2) | c2- (cB _dc | %20
 B6 | [CEA]6) | z2 ([FAc]2 [FB=d]2 | [GBe]2) ([EGB]2 [EGc]2 | [FA_d]2) ([DFA]2 [DFB]2) | [EAc]6 | %26
 z2 ([GB]2 [Ec]2 | [Fd]2) ([FA]2 [DB]2 | c6) | [GB]6 | z2 A2 B2 | ([Ac]2 [EB]2 [CA]2) | B6 | %33
 [CEA]6 | z2 [Ac]2 [F_d]2 | (([Ge]2 [Fd]2 [Ec]2) | [Fd]2 [Ec]2 [FB]2) | ([Ac]2 [GB]2 [FA]2) | %38
 ([GB]2 [FA]2 [EG]2) | (A2 B2 [DFA]2) | (G4 c2) | !fermata![CFc]6 ||!f! z2 [EAc]2 [EAc]2 | %43
 [EGc]2 [EGB]2 [EGB]2 | [EAc]2 !>![CEA]4 | [DFc]2 [DFB]2 [DFA]2 | [DFG]4 [B,=EG]2 | (F2 (A2 c2)) | %48
!f! z2 [EAc]2 [EAc]2 | [EGc]2 [EGB]2 [EGB]2 | [EAc]2 !>![CEA]4 | [DFc]2 [DFB]2 [DFA]2 | %52
 [DFG]4 [B,=EG]2 | F2 (A2 c2) | z2 [FAc]2 [FB=d]2 | [GBe]2 [FB=d]2 [EBd]2 | (c2- cB_dc) | B6 | %58
 ([CEA]2 A2 c2) | z2 ([FAc]2 [FB=d]2 | [GBe]2 [FB=d]2 [EBd]2 | c2-) (cB_dc | B6 | [CEA]6) | %64
 z2 ([FAc]2 [FB=d]2 | [GBe]2) ([EGB]2 [EGc]2 | [FA_d]2) ([DFA]2 [DFB]2) | [EAc]6 | %68
 z2 ([GB]2 [Ec]2 | [Fd]2) ([FA]2 [DB]2 | c6) | [GB]6 | z2 A2 B2 | ([Ac]2 [EB]2 [CA]2) | A2 G4 | %75
 [CEA]6 | z2 [Ac]2 [F_d]2 | (([Ge]2 [Fd]2 [Ec]2) | ([Fd]2 [Ec]2 [FB]2) | ([Ac]2 [GB]2 [FA]2)) | %80
 ([GB]2 [FA]2 [EG]2) | (A2 B2 [DFA]2) | (G4 c2) | !fermata![CFc]6 |] %84
V:3
"^CON  SPIRITO" z2 [A,C]2 [A,C]2 | z2 [E,G,B,]2 [E,G,B,]2 | z2 !>![E,A,]4 | %3
 z2 [D,F,B,]2 [D,F,B,]2 | (B,,,2 B,,2) [C,,C,]2 | [F,,C,]6 | z2 [A,C]2 [A,C]2 | %7
 z2 [E,G,B,]2 [E,G,B,]2 | z2 !>![E,A,]4 | z2 [D,F,B,]2 [D,F,B,]2 | (B,,,2 B,,2) [C,,C,]2 | %11
 [F,,C,]6 | z2 [A,C]2 [B,=D]2 | ([E,B,]2 [F,B,]2 [G,B,]2 | ([A,C]2) _D,2 B,,2) | %15
 (E,4"^rit." E,,2) |"^a tempo" [A,,E,]6 | z2 [A,C]2 [B,=D]2 | [E,B,]2 ([F,B,]2 [G,B,]2 | %19
 ([A,C]2) _D,2 B,,2) | E,4 E,,2 | z2 (E,2 A,2) | z2 ([A,C]2 [B,=D]2) | z2 (B,2 C2) | (A,4 F,2) | %25
 (E,2 A,2 E2) | z2 [G,B,]2 [G,C]2 | z2 [F,A,]2 [F,B,]2 | z2 (C,2 D,2 |!<(! E,2 F,2 G,2)!<)! | %30
 (A,4 F,2) | E,6 | [E,,E,]6 | (A,,2 E,2 A,2) |!<(! [F,A,]6 |!>(! (B,4!<)! C2) | (B,2 C2 D2) | %37
 (A,2 B,2 C2) | (G,2 A,2!>)! B,2) | B,6 |"^rit.   .   .   .   .   .   .   ." B,6 | %41
!pp! !arpeggio!!fermata![F,,C,=A,]6 || z2 [A,C]2!>(! [A,C]2 | z2 [E,G,B,]2 [E,G,B,]2 | %44
 z2 !>![E,A,]4 | x2 [D,F,B,]2 [D,F,B,]2!>)! | (B,,,2 B,,2) [C,,C,]2 | [F,,C,]6 | z2 [A,C]2 [A,C]2 | %49
 z2 [E,G,B,]2 [E,G,B,]2 | z2 !>![E,A,]4 | z2 [D,F,B,]2 [D,F,B,]2 | (B,,,2 B,,2) [C,,C,]2 | %53
 [F,,C,]6 | z2 [A,C]2 [B,=D]2 | ([E,B,]2 [F,B,]2 [G,B,]2 | ([A,C]2) _D,2 B,,2) | (E,4 E,,2) | %58
 [A,,E,]6 | z2 [A,C]2 [B,=D]2 | ([E,B,]2 [F,B,]2 [G,B,]2 | ([A,C]2) _D,2 B,,2) | E,4 E,,2 | %63
 z2 (E,2 A,2) | z2 ([A,C]2 [B,=D]2) | z2 B,2 C2 | A,4 F,2 | (E,2 A,2 E2) | z2 [G,B,]2 [G,C]2 | %69
 z2 [F,A,]2 [F,B,]2 | z2 C,2 D,2 | E,2 F,2 G,2 | (A,4 F,2) | E,6 | [E,,E,]6 | (A,,2 E,2 A,2) | %76
 [F,A,]6 | (B,4 C2) | (B,2 C2 D2) | (A,2 B,2 C2) | (G,2 A,2 B,2) | B,6 |"^rit." B,6 | %83
!pp! !arpeggio!!fermata![F,,C,=A,]6 |] %84
V:4
 !>!A,,6 | !>!E,,6 | C,,6 | D,,6 | x6 | x6 | !>!A,,6 | E,,6 | C,,6 | D,,6 | x6 | x6 | F,6 | x4 x2 | %14
 x6 | x6 | x6 | !>!F,6 | x6 | x6 | x6 | A,,6 | F,6 | E,6 | _D,6 | A,,6 | E,6 | D,6 | A,,6 | %29
 E,,2 z2 z2 | D,6 | A,,6 | x6 | A,,6 | x6 | E,6 | B,,6 | F,6 | E,6 | D,4 B,,2 | C,6 | x6 || A,,6 | %43
 !>!E,,6 | C,,6 | D,,6 | x6 | x6 | !>!A,,6 | E,,6 | C,,6 | D,,6 | x6 | x6 | F,6 | x6 | x6 | x6 | %58
 x6 | !>!F,6 | x6 | x6 | x6 | A,,6 | F,6 | E,6 | _D,6 | A,,6 | E,6 | D,6 | A,,6 | E,,2 z2 z2 | %72
 !>!D,6 | A,,6 | x6 | A,,6 | x6 | E,6 | B,,6 | F,6 | E,6 | D,4 B,,2 | C,6 | x6 |] %84
V:5
 x6 | x6 | x6 | x6 | x6 | [A,C]6 | x6 | x6 | x6 | x6 | x6 | [A,C]6 | x6 | x6 | [EA]2 [FA]2 [FA]2 | %15
 [EA]2 GF[EG]D | x6 | x6 | x6 | [EA]2 [FA]2 [FA]2 | [EA]2 GF[EG]D | x6 | x6 | x6 | x6 | x6 | x6 | %27
 x6 | [EA]2 E2 F2 | x6 | x2 F4 | x6 | E4 D2 | x6 | x6 | x6 | x6 | x6 | x6 | [DF]4 x2 | C6 | x6 || %42
 x6 | x6 | x6 | x6 | x6 | [A,C]6 | x6 | x6 | x6 | x6 | x6 | [A,C]6 | x6 | x6 | [EA]2 [FA]2 [FA]2 | %57
 [EA]2 GF[EG]D | x6 | x6 | x6 | [EA]2 [FA]2 [FA]2 | [EA]2 GF[EG]D | x6 | x6 | x6 | x6 | x6 | x6 | %69
 x6 | [EA]2 E2 F2 | x6 | x2 F4 | x6 | E4 D2 | x6 | x6 | x6 | x6 | x6 | x6 | [DF]4 x2 | C6 | x6 |] %84
V:6
 x6 | x6 | x6 | x6 | x6 | x6 | x6 | x6 | x6 | x6 | x6 | x6 | x6 | x6 | x6 | x6 | x6 | x6 | x6 | %19
 x6 | x6 | x6 | x6 | x6 | x6 | x6 | x6 | x6 | x6 | x6 | x6 | x6 | A2 G4 | x6 | x6 | x6 | x6 | x6 | %38
 x6 | x6 | F2 =E4 | x6 || x6 | x6 | x6 | x6 | x6 | x6 | x6 | x6 | x6 | x6 | x6 | x6 | x6 | x6 | %56
 x6 | x6 | x6 | x6 | x6 | x6 | x6 | x6 | x6 | x6 | x6 | x6 | x6 | x6 | x6 | x6 | x6 | x6 | B6 | %75
 x6 | x6 | x6 | x6 | x6 | x6 | x6 | F2 =E4 | x6 |] %84

